X:2746
T:Castles in the Air
M:2/4
L:1/16
K:G
BA|G2B2 DDEF|GFGA B2AG|c2e2 dBGB|AGAB AcBA|!
G2B2 DDEF|GFGA B2AG|c2e2 dBGB|ADFA G2:|!
|:d2|eeec dddB|cBce d2BG|cBce dBGB|AGAB AcBA|!
G2B2 DDEF|GFGA B2AG|c2e2 dBGB|ADFA G2:|!
